symbols/web/pages/materialsymbolssharp/pages_wght600gradN25_40px.svg

<svg xmlns="http://www.w3.org/2000/svg" height="40" width="40"><path d="m20 27.625 2.375-5.292L27.667 20l-5.292-2.375L20 12.333l-2.333 5.292L12.375 20l5.292 2.333ZM4.583 35.417V4.583h30.834v30.834Zm3.542-3.542h23.75V8.125H8.125Zm0 0V8.125v23.75Z"/></svg>

<svg xmlns="http://www.w3.org/2000/svg" height="40" width="40"><path d="M20 27.625 22.375 22.333 27.667 20 22.375 17.625 20 12.333 17.667 17.625 12.375 20 17.667 22.333ZM4.583 35.417V4.583H35.417V35.417ZM8.125 31.875H31.875V8.125H8.125ZM8.125 31.875V8.125V31.875Z"/></svg>
